flaticon/sport/baseball-1.svg

<svg xmlns="http://www.w3.org/2000/svg" width="32" height="32" viewBox="0 0 24 24">
    <path d="M 22.898438 17.015625 C 22.945312 16.914062 22.992188 16.816406 23.035156 16.714844 C 23.078125 16.613281 23.117188 16.511719 23.15625 16.414062 C 23.183594 16.34375 23.210938 16.273438 23.238281 16.203125 C 23.28125 16.09375 23.316406 15.980469 23.355469 15.871094 C 23.378906 15.804688 23.398438 15.742188 23.421875 15.679688 C 23.457031 15.566406 23.492188 15.449219 23.523438 15.335938 C 23.542969 15.269531 23.5625 15.207031 23.578125 15.144531 C 23.609375 15.03125 23.640625 14.914062 23.667969 14.796875 C 23.683594 14.730469 23.699219 14.664062 23.714844 14.597656 C 23.738281 14.484375 23.761719 14.371094 23.785156 14.257812 C 23.800781 14.179688 23.8125 14.105469 23.824219 14.03125 C 23.84375 13.921875 23.863281 13.816406 23.878906 13.707031 C 23.890625 13.617188 23.898438 13.53125 23.910156 13.441406 C 23.921875 13.34375 23.933594 13.246094 23.945312 13.148438 C 23.953125 13.039062 23.960938 12.925781 23.96875 12.816406 C 23.976562 12.738281 23.980469 12.660156 23.984375 12.578125 C 23.996094 12.386719 24 12.195312 24 12 C 24 11.804688 23.996094 11.613281 23.984375 11.421875 C 23.980469 11.339844 23.972656 11.261719 23.96875 11.183594 C 23.960938 11.074219 23.953125 10.960938 23.945312 10.851562 C 23.933594 10.753906 23.921875 10.65625 23.910156 10.558594 C 23.898438 10.46875 23.890625 10.382812 23.875 10.292969 C 23.863281 10.183594 23.84375 10.078125 23.824219 9.96875 C 23.8125 9.894531 23.800781 9.820312 23.785156 9.742188 C 23.761719 9.628906 23.738281 9.515625 23.714844 9.402344 C 23.699219 9.335938 23.683594 9.269531 23.667969 9.203125 C 23.640625 9.085938 23.609375 8.96875 23.578125 8.855469 C 23.5625 8.792969 23.542969 8.730469 23.523438 8.664062 C 23.492188 8.550781 23.457031 8.433594 23.417969 8.320312 C 23.398438 8.257812 23.378906 8.195312 23.355469 8.128906 C 23.316406 8.019531 23.277344 7.90625 23.238281 7.796875 C 23.210938 7.726562 23.183594 7.65625 23.15625 7.585938 C 23.117188 7.488281 23.078125 7.386719 23.035156 7.285156 C 22.992188 7.183594 22.945312 7.085938 22.898438 6.984375 C 22.867188 6.917969 22.839844 6.851562 22.804688 6.785156 C 22.335938 5.808594 21.730469 4.894531 21 4.066406 L 20.691406 3.714844 L 20.679688 3.726562 C 18.492188 1.433594 15.410156 0 12 0 C 8.589844 0 5.507812 1.433594 3.320312 3.726562 L 3.308594 3.714844 L 3 4.066406 C 2.269531 4.894531 1.664062 5.808594 1.191406 6.785156 C 1.160156 6.851562 1.132812 6.917969 1.101562 6.984375 C 1.054688 7.085938 1.007812 7.183594 0.964844 7.285156 C 0.921875 7.386719 0.882812 7.484375 0.84375 7.585938 C 0.816406 7.65625 0.789062 7.726562 0.761719 7.796875 C 0.71875 7.90625 0.683594 8.019531 0.644531 8.128906 C 0.621094 8.195312 0.601562 8.257812 0.578125 8.320312 C 0.542969 8.433594 0.507812 8.550781 0.476562 8.664062 C 0.457031 8.730469 0.4375 8.792969 0.421875 8.855469 C 0.390625 8.96875 0.359375 9.085938 0.332031 9.203125 C 0.316406 9.269531 0.300781 9.335938 0.285156 9.402344 C 0.261719 9.515625 0.238281 9.628906 0.214844 9.742188 C 0.199219 9.820312 0.1875 9.894531 0.175781 9.96875 C 0.15625 10.078125 0.136719 10.183594 0.121094 10.292969 C 0.109375 10.382812 0.101562 10.46875 0.0898438 10.558594 C 0.078125 10.65625 0.0664062 10.753906 0.0546875 10.851562 C 0.046875 10.960938 0.0390625 11.074219 0.03125 11.183594 C 0.0234375 11.261719 0.0195312 11.339844 0.015625 11.421875 C 0.00390625 11.613281 0 11.804688 0 12 C 0 12.195312 0.00390625 12.386719 0.015625 12.578125 C 0.0195312 12.660156 0.0273438 12.738281 0.03125 12.816406 C 0.0390625 12.925781 0.046875 13.039062 0.0546875 13.148438 C 0.0664062 13.246094 0.078125 13.34375 0.0898438 13.441406 C 0.101562 13.53125 0.109375 13.617188 0.125 13.707031 C 0.136719 13.816406 0.15625 13.921875 0.175781 14.03125 C 0.1875 14.105469 0.199219 14.179688 0.214844 14.257812 C 0.238281 14.371094 0.261719 14.484375 0.285156 14.597656 C 0.300781 14.664062 0.316406 14.730469 0.332031 14.796875 C 0.359375 14.914062 0.390625 15.03125 0.421875 15.144531 C 0.4375 15.207031 0.457031 15.269531 0.476562 15.335938 C 0.507812 15.449219 0.542969 15.566406 0.582031 15.679688 C 0.601562 15.742188 0.621094 15.804688 0.644531 15.871094 C 0.683594 15.980469 0.722656 16.09375 0.761719 16.203125 C 0.789062 16.273438 0.816406 16.34375 0.84375 16.414062 C 0.882812 16.515625 0.921875 16.613281 0.964844 16.714844 C 1.007812 16.816406 1.058594 16.914062 1.101562 17.015625 C 1.132812 17.082031 1.160156 17.148438 1.195312 17.214844 C 1.664062 18.191406 2.269531 19.105469 3 19.933594 L 3.308594 20.285156 L 3.320312 20.273438 C 5.507812 22.566406 8.589844 24 12 24 C 15.410156 24 18.492188 22.566406 20.679688 20.273438 L 20.691406 20.285156 L 21 19.933594 C 21.730469 19.105469 22.335938 18.191406 22.808594 17.214844 C 22.839844 17.148438 22.867188 17.082031 22.898438 17.015625 Z M 23.136719 12.871094 C 23.132812 12.917969 23.128906 12.964844 23.125 13.007812 C 23.097656 13.292969 23.0625 13.574219 23.015625 13.855469 C 23.011719 13.886719 23.003906 13.921875 22.996094 13.957031 C 22.894531 14.546875 22.742188 15.125 22.542969 15.6875 C 22.539062 15.707031 22.53125 15.726562 22.523438 15.742188 C 22.429688 16.011719 22.320312 16.277344 22.207031 16.535156 C 22.1875 16.578125 22.167969 16.621094 22.148438 16.664062 C 22.035156 16.910156 21.914062 17.152344 21.78125 17.394531 C 21.753906 17.441406 21.726562 17.488281 21.699219 17.535156 C 21.570312 17.757812 21.4375 17.976562 21.292969 18.191406 C 21.261719 18.238281 21.230469 18.285156 21.199219 18.328125 C 21.066406 18.523438 20.925781 18.714844 20.777344 18.898438 C 20.746094 18.9375 20.71875 18.976562 20.6875 19.015625 C 20.125 18.320312 19.660156 17.5625 19.28125 16.765625 L 19.992188 16.53125 C 20.210938 16.457031 20.328125 16.222656 20.253906 16.007812 C 20.183594 15.789062 19.949219 15.671875 19.730469 15.746094 L 18.957031 16.003906 C 18.785156 15.550781 18.640625 15.089844 18.523438 14.617188 L 19.507812 14.476562 C 19.734375 14.445312 19.890625 14.234375 19.859375 14.011719 C 19.824219 13.785156 19.617188 13.625 19.390625 13.660156 L 18.359375 13.804688 C 18.28125 13.347656 18.242188 12.882812 18.226562 12.414062 L 19.035156 12.414062 C 19.261719 12.414062 19.449219 12.226562 19.449219 12 C 19.449219 11.769531 19.261719 11.585938 19.035156 11.585938 L 18.226562 11.585938 C 18.242188 11.117188 18.28125 10.652344 18.359375 10.191406 L 19.390625 10.339844 C 19.410156 10.34375 19.429688 10.34375 19.449219 10.34375 C 19.652344 10.34375 19.828125 10.195312 19.859375 9.988281 C 19.890625 9.761719 19.734375 9.554688 19.507812 9.519531 L 18.523438 9.378906 C 18.640625 8.910156 18.785156 8.449219 18.957031 7.996094 L 19.730469 8.253906 C 19.773438 8.269531 19.820312 8.277344 19.863281 8.277344 C 20.035156 8.277344 20.195312 8.167969 20.253906 7.992188 C 20.328125 7.777344 20.210938 7.542969 19.992188 7.46875 L 19.28125 7.234375 C 19.660156 6.4375 20.125 5.679688 20.6875 4.984375 C 20.71875 5.023438 20.746094 5.0625 20.777344 5.097656 C 20.921875 5.285156 21.066406 5.476562 21.199219 5.667969 C 21.230469 5.714844 21.261719 5.761719 21.292969 5.808594 C 21.4375 6.023438 21.570312 6.242188 21.699219 6.464844 C 21.726562 6.511719 21.753906 6.558594 21.78125 6.605469 C 21.910156 6.84375 22.035156 7.089844 22.148438 7.335938 C 22.167969 7.378906 22.1875 7.421875 22.207031 7.460938 C 22.320312 7.722656 22.429688 7.984375 22.523438 8.253906 C 22.53125 8.273438 22.539062 8.292969 22.542969 8.3125 C 22.742188 8.875 22.890625 9.453125 22.996094 10.042969 C 23.003906 10.078125 23.011719 10.109375 23.015625 10.144531 C 23.0625 10.425781 23.097656 10.707031 23.125 10.992188 C 23.128906 11.035156 23.128906 11.082031 23.132812 11.125 C 23.15625 11.417969 23.171875 11.707031 23.171875 12 C 23.171875 12.292969 23.15625 12.582031 23.136719 12.871094 Z M 3.746094 7.992188 C 3.804688 8.167969 3.964844 8.277344 4.136719 8.277344 C 4.179688 8.277344 4.226562 8.269531 4.269531 8.253906 L 5.042969 7.996094 C 5.214844 8.449219 5.359375 8.910156 5.472656 9.382812 L 4.492188 9.519531 C 4.265625 9.554688 4.109375 9.761719 4.140625 9.988281 C 4.171875 10.195312 4.347656 10.34375 4.550781 10.34375 C 4.570312 10.34375 4.589844 10.34375 4.609375 10.339844 L 5.640625 10.195312 C 5.71875 10.652344 5.757812 11.117188 5.773438 11.585938 L 4.964844 11.585938 C 4.738281 11.585938 4.550781 11.773438 4.550781 12 C 4.550781 12.230469 4.738281 12.414062 4.964844 12.414062 L 5.773438 12.414062 C 5.757812 12.882812 5.71875 13.347656 5.640625 13.808594 L 4.609375 13.660156 C 4.386719 13.628906 4.175781 13.785156 4.140625 14.011719 C 4.109375 14.238281 4.265625 14.445312 4.492188 14.480469 L 5.476562 14.621094 C 5.359375 15.089844 5.214844 15.550781 5.042969 16.003906 L 4.269531 15.746094 C 4.050781 15.671875 3.816406 15.792969 3.746094 16.007812 C 3.671875 16.222656 3.789062 16.457031 4.007812 16.53125 L 4.71875 16.769531 C 4.339844 17.5625 3.875 18.320312 3.3125 19.015625 C 3.28125 18.976562 3.253906 18.9375 3.222656 18.902344 C 3.078125 18.714844 2.933594 18.523438 2.800781 18.332031 C 2.769531 18.285156 2.738281 18.238281 2.707031 18.191406 C 2.5625 17.976562 2.429688 17.757812 2.300781 17.535156 C 2.273438 17.488281 2.246094 17.441406 2.21875 17.394531 C 2.089844 17.15625 1.964844 16.910156 1.851562 16.664062 C 1.832031 16.621094 1.8125 16.578125 1.792969 16.539062 C 1.679688 16.277344 1.570312 16.011719 1.476562 15.746094 C 1.46875 15.726562 1.460938 15.707031 1.457031 15.6875 C 1.257812 15.125 1.109375 14.546875 1.003906 13.957031 C 0.996094 13.921875 0.992188 13.886719 0.984375 13.855469 C 0.9375 13.574219 0.902344 13.292969 0.875 13.007812 C 0.871094 12.964844 0.867188 12.917969 0.867188 12.875 C 0.84375 12.582031 0.828125 12.292969 0.828125 12 C 0.828125 11.707031 0.84375 11.417969 0.863281 11.128906 C 0.867188 11.082031 0.871094 11.035156 0.875 10.992188 C 0.902344 10.707031 0.9375 10.425781 0.984375 10.144531 C 0.988281 10.113281 0.996094 10.078125 1.003906 10.042969 C 1.105469 9.453125 1.257812 8.875 1.457031 8.3125 C 1.460938 8.292969 1.46875 8.273438 1.476562 8.253906 C 1.570312 7.988281 1.679688 7.722656 1.792969 7.460938 C 1.8125 7.421875 1.832031 7.378906 1.851562 7.335938 C 1.964844 7.089844 2.085938 6.84375 2.21875 6.605469 C 2.246094 6.558594 2.273438 6.511719 2.300781 6.464844 C 2.429688 6.242188 2.5625 6.023438 2.707031 5.808594 C 2.738281 5.761719 2.769531 5.714844 2.800781 5.671875 C 2.933594 5.476562 3.074219 5.285156 3.222656 5.101562 C 3.253906 5.0625 3.28125 5.023438 3.3125 4.984375 C 3.875 5.679688 4.339844 6.4375 4.71875 7.234375 L 4.007812 7.46875 C 3.789062 7.542969 3.671875 7.777344 3.746094 7.992188 Z M 12 23.171875 C 8.796875 23.171875 5.902344 21.8125 3.863281 19.644531 C 4.527344 18.84375 5.078125 17.964844 5.511719 17.03125 L 6.488281 17.359375 C 6.535156 17.371094 6.578125 17.378906 6.621094 17.378906 C 6.792969 17.378906 6.957031 17.269531 7.011719 17.097656 C 7.085938 16.878906 6.96875 16.644531 6.75 16.574219 L 5.835938 16.265625 C 6.023438 15.769531 6.179688 15.257812 6.304688 14.738281 L 7.390625 14.890625 C 7.410156 14.894531 7.429688 14.898438 7.449219 14.898438 C 7.652344 14.898438 7.828125 14.746094 7.859375 14.542969 C 7.890625 14.316406 7.734375 14.105469 7.507812 14.074219 L 6.460938 13.925781 C 6.542969 13.425781 6.59375 12.921875 6.609375 12.414062 L 7.449219 12.414062 C 7.675781 12.414062 7.863281 12.226562 7.863281 12 C 7.863281 11.773438 7.675781 11.585938 7.449219 11.585938 L 6.609375 11.585938 C 6.59375 11.078125 6.542969 10.574219 6.460938 10.074219 L 7.507812 9.925781 C 7.734375 9.894531 7.890625 9.683594 7.859375 9.457031 C 7.824219 9.234375 7.613281 9.074219 7.390625 9.109375 L 6.304688 9.261719 C 6.179688 8.742188 6.023438 8.230469 5.835938 7.734375 L 6.75 7.425781 C 6.96875 7.355469 7.085938 7.121094 7.011719 6.902344 C 6.941406 6.6875 6.707031 6.570312 6.488281 6.640625 L 5.511719 6.96875 C 5.078125 6.035156 4.527344 5.15625 3.863281 4.355469 C 5.902344 2.1875 8.796875 0.828125 12 0.828125 C 15.203125 0.828125 18.097656 2.1875 20.136719 4.355469 C 19.472656 5.15625 18.921875 6.035156 18.488281 6.96875 L 17.511719 6.640625 C 17.292969 6.570312 17.058594 6.6875 16.988281 6.902344 C 16.914062 7.121094 17.03125 7.355469 17.25 7.425781 L 18.164062 7.730469 C 17.976562 8.230469 17.820312 8.742188 17.695312 9.261719 L 16.609375 9.105469 C 16.382812 9.074219 16.175781 9.230469 16.140625 9.457031 C 16.109375 9.683594 16.265625 9.894531 16.492188 9.925781 L 17.539062 10.074219 C 17.457031 10.574219 17.40625 11.078125 17.390625 11.585938 L 16.550781 11.585938 C 16.324219 11.585938 16.136719 11.769531 16.136719 12 C 16.136719 12.226562 16.324219 12.414062 16.550781 12.414062 L 17.390625 12.414062 C 17.40625 12.921875 17.457031 13.425781 17.539062 13.921875 L 16.492188 14.074219 C 16.265625 14.105469 16.109375 14.316406 16.140625 14.542969 C 16.171875 14.746094 16.347656 14.898438 16.550781 14.898438 C 16.570312 14.898438 16.589844 14.894531 16.609375 14.890625 L 17.695312 14.738281 C 17.820312 15.257812 17.976562 15.769531 18.164062 16.265625 L 17.25 16.574219 C 17.03125 16.644531 16.914062 16.878906 16.988281 17.097656 C 17.042969 17.269531 17.207031 17.378906 17.378906 17.378906 C 17.421875 17.378906 17.464844 17.371094 17.511719 17.359375 L 18.488281 17.03125 C 18.921875 17.964844 19.472656 18.84375 20.136719 19.644531 C 18.097656 21.8125 15.203125 23.171875 12 23.171875 Z M 12 23.171875"/>
</svg>

<svg xmlns="http://www.w3.org/2000/svg" width="32" height="32" viewBox="0 0 24 24">
    <path d="M22.898 17.016c.047-.102.094-.2.137-.301.043-.102.082-.203.121-.3l.082-.212c.043-.11.078-.223.117-.332.024-.066.043-.129.067-.191.035-.114.07-.23.101-.344.02-.066.04-.129.055-.191.031-.114.063-.23.09-.348l.047-.2.07-.34c.016-.077.027-.152.04-.226.019-.11.038-.215.054-.324.012-.09.02-.176.031-.266l.035-.293.024-.332c.008-.078.011-.156.015-.238.012-.191.016-.383.016-.578 0-.195-.004-.387-.016-.578-.004-.082-.011-.16-.015-.238l-.024-.332-.035-.293c-.012-.09-.02-.176-.035-.266-.012-.11-.031-.215-.05-.324-.012-.074-.024-.149-.04-.227l-.07-.34-.047-.199a9.032 9.032 0 0 0-.09-.348c-.015-.062-.035-.125-.055-.19a5.772 5.772 0 0 0-.105-.345 5.403 5.403 0 0 0-.063-.191l-.117-.332-.082-.211c-.039-.098-.078-.2-.12-.3-.044-.102-.09-.2-.138-.302-.03-.066-.058-.132-.093-.199A11.882 11.882 0 0 0 21 4.066l-.309-.351-.011.012a11.968 11.968 0 0 0-17.36 0l-.011-.012L3 4.066a12.028 12.028 0 0 0-1.809 2.72c-.03.066-.058.132-.09.198-.046.102-.093.2-.136.301a9.67 9.67 0 0 0-.121.3l-.082.212c-.043.11-.078.223-.117.332-.024.066-.043.129-.067.191-.035.114-.07.23-.101.344-.02.066-.04.129-.055.191-.031.114-.063.23-.09.348l-.047.2-.07.34c-.016.077-.027.152-.04.226-.019.11-.038.215-.054.324-.012.09-.02.176-.031.266l-.035.293-.024.332A9.434 9.434 0 0 0 0 12c0 .195.004.387.016.578.004.082.011.16.015.238l.024.332.035.293c.012.09.02.176.035.266.012.11.031.215.05.324.013.074.024.149.04.227l.07.34.047.199c.027.117.059.234.09.348.016.062.035.125.055.19.03.114.066.231.105.345.02.062.04.125.063.191l.117.332.082.211c.039.102.078.2.12.3.044.102.095.2.138.302.03.066.058.132.093.199.47.976 1.075 1.89 1.805 2.719l.309.351.011-.012a11.968 11.968 0 0 0 17.36 0l.011.012.309-.351a12.028 12.028 0 0 0 1.809-2.72c.03-.066.058-.132.09-.198zm.239-4.145l-.012.137c-.027.285-.063.566-.11.847-.003.032-.011.067-.019.102a10.538 10.538 0 0 1-.473 1.785c-.093.27-.203.535-.316.793l-.059.13c-.113.245-.234.487-.367.73l-.082.14c-.129.223-.262.442-.406.656-.031.047-.063.094-.094.137a8.593 8.593 0 0 1-.422.57c-.03.04-.058.079-.09.118a11.24 11.24 0 0 1-1.406-2.25l.711-.235a.412.412 0 0 0 .262-.523.41.41 0 0 0-.524-.262l-.773.258a12.138 12.138 0 0 1-.434-1.387l.985-.14a.413.413 0 1 0-.117-.817l-1.032.145a10.283 10.283 0 0 1-.132-1.39h.808a.414.414 0 0 0 0-.828l-.808-.001c.015-.469.054-.934.132-1.395l1.032.149c.02.004.039.004.058.004a.415.415 0 0 0 .41-.356.417.417 0 0 0-.351-.468l-.985-.141c.118-.469.262-.93.434-1.383l.773.258a.413.413 0 0 0 .523-.262.412.412 0 0 0-.26-.523l-.712-.235a11.24 11.24 0 0 1 1.407-2.25c.03.04.058.079.09.114.144.187.288.379.421.57l.094.14a11.418 11.418 0 0 1 .855 1.528l.059.125c.113.262.223.523.316.793.008.02.016.039.02.059.2.562.348 1.14.453 1.73.008.035.016.066.02.102.047.28.082.562.109.847.004.043.004.09.008.133.023.293.039.582.039.875 0 .293-.016.582-.035.871zM3.747 7.992a.413.413 0 0 0 .523.262l.773-.258c.172.453.316.914.43 1.387l-.98.137a.417.417 0 0 0-.352.468.415.415 0 0 0 .41.356c.02 0 .039 0 .058-.004l1.032-.145c.078.457.117.922.132 1.39h-.808a.414.414 0 0 0 0 .828l.808.001c-.015.469-.054.934-.132 1.395l-1.032-.149a.419.419 0 0 0-.468.352.417.417 0 0 0 .351.468l.985.141c-.118.469-.262.93-.434 1.383l-.773-.258a.412.412 0 0 0-.524.262.412.412 0 0 0 .262.523l.71.239c-.378.793-.843 1.55-1.405 2.246-.032-.04-.06-.078-.09-.114-.145-.187-.29-.379-.422-.57l-.094-.14a11.418 11.418 0 0 1-.406-.657l-.082-.14a12.758 12.758 0 0 1-.367-.73l-.059-.126a12.407 12.407 0 0 1-.316-.793c-.008-.02-.016-.039-.02-.059-.2-.562-.348-1.14-.453-1.73-.008-.035-.012-.07-.02-.102a12.258 12.258 0 0 1-.109-.847 1.514 1.514 0 0 1-.008-.133C.844 12.582.828 12.293.828 12c0-.293.016-.582.035-.871l.012-.137c.027-.285.063-.566.11-.847.003-.032.011-.067.019-.102.101-.59.254-1.168.453-1.73a12.407 12.407 0 0 1 .336-.852c.02-.04.039-.082.059-.125.113-.246.234-.492.367-.73l.082-.141c.129-.223.261-.442.406-.656.031-.047.063-.094.094-.137.133-.195.273-.387.422-.57.03-.04.058-.079.09-.118a11.24 11.24 0 0 1 1.406 2.25l-.711.235a.412.412 0 0 0-.262.523zM12 23.172c-3.203 0-6.098-1.36-8.137-3.527.664-.801 1.215-1.68 1.649-2.614l.976.328c.047.012.09.02.133.02a.41.41 0 0 0 .39-.281.41.41 0 0 0-.261-.524l-.914-.308c.187-.496.344-1.008.469-1.528l1.086.153c.02.004.039.007.058.007a.414.414 0 0 0 .059-.824l-1.047-.148c.082-.5.133-1.004.148-1.512h.84A.417.417 0 0 0 7.863 12a.417.417 0 0 0-.414-.414h-.84a11.517 11.517 0 0 0-.148-1.512l1.047-.148a.414.414 0 0 0 .351-.469.416.416 0 0 0-.468-.348l-1.086.153a12.783 12.783 0 0 0-.47-1.528l.915-.308a.41.41 0 0 0 .262-.524.415.415 0 0 0-.524-.261l-.976.328a12.023 12.023 0 0 0-1.649-2.614 11.148 11.148 0 0 1 16.274 0c-.664.801-1.215 1.68-1.649 2.614l-.976-.328a.415.415 0 0 0-.524.261.41.41 0 0 0 .262.524l.914.304c-.187.5-.344 1.012-.469 1.532l-1.086-.157a.414.414 0 0 0-.117.82l1.047.15c-.082.5-.133 1.003-.148 1.51h-.84a.414.414 0 0 0 0 .83h.84c.015.507.066 1.01.148 1.507l-1.047.152a.414.414 0 0 0 .059.824c.02 0 .039-.003.058-.007l1.086-.153c.125.52.282 1.032.47 1.528l-.915.308a.41.41 0 0 0-.262.524.41.41 0 0 0 .39.28.546.546 0 0 0 .134-.019l.976-.328c.434.934.985 1.813 1.649 2.614A11.148 11.148 0 0 1 12 23.172zm0 0"/>
</svg>
